Papirus/16x16/apps/metasploit.svg

<?xml version="1.0" encoding="UTF-8" standalone="no"?>
<svg
   id="_图层_1"
   version="1.1"
   viewBox="0 0 64 64" width="16" height="16"
   sodipodi:docname="metasploit.svg"
   xml:space="preserve"
   inkscape:version="1.4 (e7c3feb100, 2024-10-09)"
   xmlns:inkscape="http://www.inkscape.org/namespaces/inkscape"
   xmlns:sodipodi="http://sodipodi.sourceforge.net/DTD/sodipodi-0.dtd"
   xmlns="http://www.w3.org/2000/svg"
   xmlns:svg="http://www.w3.org/2000/svg"><sodipodi:namedview
     id="namedview26"
     pagecolor="#505050"
     bordercolor="#eeeeee"
     borderopacity="1"
     inkscape:showpageshadow="0"
     inkscape:pageopacity="0"
     inkscape:pagecheckerboard="0"
     inkscape:deskcolor="#505050"
     inkscape:zoom="10.6875"
     inkscape:cx="32"
     inkscape:cy="36.491228"
     inkscape:window-width="1920"
     inkscape:window-height="939"
     inkscape:window-x="0"
     inkscape:window-y="34"
     inkscape:window-maximized="1"
     inkscape:current-layer="_图层_1" /><!-- Generator: Adobe Illustrator 29.0.1, SVG Export Plug-In . SVG Version: 2.1.0 Build 192)  --><defs
     id="defs6"><style
       id="style1">
      .st0 {
        fill-opacity: .5;
      }

      .st0, .st1, .st2, .st3, .st4, .st5, .st6, .st7 {
        fill: #fff;
      }

      .st8 {
        fill: #133c9a;
      }

      .st2, .st9 {
        display: none;
      }

      .st3 {
        fill-opacity: .2;
      }

      .st4 {
        fill-opacity: .9;
      }

      .st10 {
        fill: #3370ff;
      }

      .st11 {
        fill: url(#_未命名的渐变_3);
      }

      .st12 {
        fill: url(#_未命名的渐变);
      }

      .st5 {
        fill-opacity: .3;
      }

      .st6 {
        fill-opacity: 0;
      }

      .st7 {
        fill-opacity: .7;
      }

      .st13 {
        fill: #00d6b9;
      }

      .st14 {
        fill: url(#_未命名的渐变_2);
      }
    </style><radialGradient
       id="_未命名的渐变"
       data-name="未命名的渐变"
       cx="123.9"
       cy="-40.2"
       fx="123.9"
       fy="-40.2"
       r="59.4"
       gradientTransform="translate(-26.8 25.5) scale(.6 -.7)"
       gradientUnits="userSpaceOnUse"><stop
         offset="0"
         stop-color="#db202e"
         id="stop1" /><stop
         offset="1"
         stop-color="#e01b24"
         id="stop2" /></radialGradient><radialGradient
       id="_未命名的渐变_2"
       data-name="未命名的渐变 2"
       cx="67.6"
       cy="26.8"
       fx="67.6"
       fy="26.8"
       r="105.2"
       gradientTransform="translate(-26.6 25.3) scale(.6 -.7)"
       gradientUnits="userSpaceOnUse"><stop
         offset="0"
         stop-color="#ffb648"
         id="stop3" /><stop
         offset="1"
         stop-color="#ff7800"
         stop-opacity="0"
         id="stop4" /></radialGradient><radialGradient
       id="_未命名的渐变_3"
       data-name="未命名的渐变 3"
       cx="61.7"
       cy="18.6"
       fx="61.7"
       fy="18.6"
       r="68"
       gradientTransform="translate(-26.8 25.8) scale(.6 -.7)"
       gradientUnits="userSpaceOnUse"><stop
         offset="0"
         stop-color="#c64600"
         id="stop5" /><stop
         offset="1"
         stop-color="#a51d2d"
         id="stop6" /></radialGradient></defs><path
     class="st1"
     d="M 47.5,64.1 H 13.8 C 6.2,64.1 0,57.8 0,50.3 V 13.7 C 0,6.2 6.2,0 13.7,0 H 50.3 C 57.8,0 64,6.2 64,13.7 V 50.3 C 64,57.8 57.8,64 50.3,64 h -2.9 0.1 z"
     id="path6"
     style="fill:#f2f2f2;fill-opacity:1"
     sodipodi:nodetypes="cssssssssccc" /><g
     id="g41"
     transform="matrix(2.9415205,0,0,2.8128655,8.0467832,9.3040937)"><path
       d="m 8,16 c 0,0 4,-2 6,-6 V 1 C 14,1 12,0 8,0 4,0 2,1 2,1 v 9 c 2,4 6,6 6,6 z"
       style="fill:#0d78b9"
       id="path1-2" /><path
       d="m 8,0 v 16 c 0,0 4,-2 6,-6 V 1 C 14,1 12,0 8,0 Z"
       style="opacity:0.2"
       id="path2-2" /><path
       d="m 3,2 v 8 c 0,1 2,3 2,3 V 5 l 2,2 v 3 H 9 V 7 l 2,-2 v 8 c 0,0 2,-2 2,-3 V 2 H 11 L 8,5 5,2 Z"
       style="fill:#ffffff"
       id="path3-8" /></g></svg>

<svg width="16" height="16" version="1.1" xmlns="http://www.w3.org/2000/svg">
 <path d="m8 16s4-2 6-6v-9s-2-1-6-1-6 1-6 1v9c2 4 6 6 6 6z" style="fill:#0d78b9"/>
 <path d="m8 0v16s4-2 6-6v-9s-2-1-6-1z" style="opacity:.2"/>
 <path d="m3 2v8c0 1 2 3 2 3v-8l2 2v3h2v-3l2-2v8s2-2 2-3v-8h-2l-3 3-3-3z" style="fill:#ffffff"/>
</svg>
